img/soc-icons/youtube.svg

<svg width="48" height="48" viewBox="0 0 48 48" fill="none" xmlns="http://www.w3.org/2000/svg">
<g clip-path="url(#clip0_5_83)">
<circle cx="24" cy="24" r="22" fill="#C4302B"/>
<path d="M13.7529 26.0204H15.4906V34.6526H17.1699V26.0204H18.9057V24.5507H13.7529V26.0204Z" fill="white"/>
<path d="M24.0643 18.8472C24.2924 18.8472 24.4737 18.7868 24.6072 18.663C24.7407 18.5353 24.8089 18.3618 24.8089 18.1435V13.67C24.8089 13.4907 24.7407 13.3445 24.6033 13.2363C24.4659 13.1242 24.2875 13.0687 24.0643 13.0687C23.8606 13.0687 23.6949 13.1242 23.5653 13.2363C23.4376 13.3445 23.3753 13.4917 23.3753 13.67V18.1435C23.3753 18.3677 23.4347 18.5412 23.5546 18.663C23.6725 18.7868 23.8441 18.8472 24.0643 18.8472Z" fill="white"/>
<path d="M27.7669 27.109C27.535 27.109 27.3059 27.1685 27.0798 27.2864C26.8566 27.4043 26.6422 27.5798 26.4424 27.8059V24.5507H24.9366V34.6526H26.4424V34.0815C26.6364 34.3115 26.8498 34.4791 27.0779 34.5883C27.304 34.6964 27.5652 34.7501 27.8585 34.7501C28.2981 34.7501 28.6392 34.6107 28.8692 34.329C29.1031 34.0454 29.221 33.6419 29.221 33.1146V28.9784C29.221 28.3673 29.0973 27.9024 28.8458 27.5866C28.5983 27.2689 28.2386 27.109 27.7669 27.109ZM27.685 32.909C27.685 33.1488 27.6412 33.3183 27.5554 33.4226C27.4697 33.5289 27.3361 33.5805 27.1539 33.5805C27.0281 33.5805 26.9102 33.5522 26.7942 33.5006C26.6802 33.4489 26.5603 33.3583 26.4424 33.2374V28.5944C26.5438 28.4901 26.6461 28.4131 26.7484 28.3663C26.8508 28.3146 26.958 28.2922 27.0642 28.2922C27.264 28.2922 27.4199 28.3565 27.5291 28.4842C27.6334 28.6158 27.685 28.8058 27.685 29.0592V32.909Z" fill="white"/>
<path d="M22.3246 32.8632C22.1853 33.023 22.0313 33.1546 21.8636 33.2608C21.696 33.3651 21.5557 33.4168 21.4484 33.4168C21.3071 33.4168 21.2067 33.3788 21.1424 33.2988C21.082 33.2209 21.0489 33.0932 21.0489 32.9178V27.1997H19.5606V33.4324C19.5606 33.8778 19.6483 34.2052 19.8218 34.4314C19.9992 34.6526 20.2555 34.7627 20.6005 34.7627C20.8802 34.7627 21.1697 34.6867 21.467 34.5269C21.7642 34.3651 22.0498 34.137 22.3256 33.8359V34.6526H23.8158V27.2007H22.3256V32.8632H22.3246Z" fill="white"/>
<path d="M24 9.53674e-07C10.7452 9.53674e-07 0 10.7452 0 24C0 37.2568 10.7452 48 24 48C37.2548 48 48 37.2568 48 24C48 10.7452 37.2538 9.53674e-07 24 9.53674e-07ZM27.877 11.8533H29.5524V18.1484C29.5524 18.3443 29.5904 18.4837 29.6606 18.5694C29.7288 18.6571 29.8438 18.7029 30.0017 18.7029C30.1235 18.7029 30.2795 18.6435 30.4695 18.5295C30.6557 18.4115 30.8292 18.2653 30.9851 18.0841V11.8533H32.6644V20.0635H30.9851V19.1571C30.6791 19.4904 30.3565 19.7468 30.0202 19.9202C29.6869 20.0937 29.3633 20.1834 29.0476 20.1834C28.6597 20.1834 28.3682 20.0596 28.1704 19.814C27.9764 19.5723 27.877 19.2068 27.877 18.7137V11.8533ZM21.6492 13.7304C21.6492 13.0969 21.8734 12.5901 22.3246 12.2091C22.7778 11.8358 23.385 11.6457 24.1462 11.6457C24.8411 11.6457 25.4083 11.8455 25.8537 12.2412C26.2952 12.6369 26.5165 13.1515 26.5165 13.7792V18.0188C26.5165 18.7234 26.2991 19.2731 25.8674 19.6707C25.4298 20.0684 24.8323 20.2682 24.0702 20.2682C23.3373 20.2682 22.7496 20.0625 22.309 19.6532C21.8695 19.238 21.6482 18.6825 21.6482 17.9856V13.7304H21.6492ZM17.0802 8.93531L18.3063 13.3815H18.4262L19.5928 8.93531H21.5118L19.315 15.4477V20.0645H17.4262V15.6534L15.1777 8.93531H17.0802ZM39.0471 32.3583C39.0471 35.328 36.6389 37.7382 33.6692 37.7382H14.9799C12.0083 37.7382 9.6 35.328 9.6 32.3583V28.033C9.6 25.0614 12.0083 22.6531 14.9799 22.6531H33.6692C36.6389 22.6531 39.0471 25.0614 39.0471 28.033V32.3583Z" fill="white"/>
<path d="M32.2648 27.0155C31.5962 27.0155 31.0562 27.2172 30.6333 27.6266C30.2122 28.032 29.9998 28.5612 29.9998 29.2025V32.5533C29.9998 33.2725 30.1937 33.8359 30.5767 34.2433C30.9598 34.6526 31.4851 34.8582 32.1527 34.8582C32.8954 34.8582 33.4528 34.6662 33.8242 34.2813C34.2013 33.8934 34.3855 33.3183 34.3855 32.5533V32.1702H32.8534V32.5094C32.8534 32.949 32.8018 33.2326 32.7053 33.3603C32.6088 33.4879 32.4353 33.5523 32.1878 33.5523C31.95 33.5523 31.7823 33.4782 31.6829 33.3281C31.5855 33.1741 31.5387 32.9032 31.5387 32.5094V31.1069H34.3865V29.2035C34.3865 28.4988 34.2052 27.9589 33.8388 27.5798C33.4714 27.2036 32.946 27.0155 32.2648 27.0155ZM32.8534 29.9471H31.5377V29.1938C31.5377 28.8819 31.5855 28.6548 31.6897 28.5252C31.794 28.3858 31.9636 28.3195 32.2014 28.3195C32.4256 28.3195 32.5952 28.3858 32.6965 28.5252C32.7989 28.6548 32.8525 28.8809 32.8525 29.1938V29.9471H32.8534Z" fill="white"/>
</g>
<defs>
<clipPath id="clip0_5_83">
<rect width="48" height="48" fill="white"/>
</clipPath>
</defs>
</svg>

<svg width="48" height="48" fill="none" xmlns="http://www.w3.org/2000/svg">
    <g clip-path="url(#a)">
        <circle cx="24" cy="24" r="22" fill="#C4302B"/>
        <path d="M13.753 26.02h1.738v8.633h1.679V26.02h1.736v-1.47h-5.153v1.47ZM24.064 18.847c.228 0 .41-.06.543-.184a.686.686 0 0 0 .202-.52V13.67a.526.526 0 0 0-.206-.434c-.137-.112-.316-.167-.539-.167a.734.734 0 0 0-.499.167.542.542 0 0 0-.19.434v4.473c0 .225.06.398.18.52.117.124.29.184.51.184ZM27.767 27.109c-.232 0-.461.06-.687.177a2.298 2.298 0 0 0-.638.52V24.55h-1.505v10.102h1.505v-.572c.194.23.408.398.636.507.226.108.487.162.78.162.44 0 .781-.14 1.011-.421.234-.284.352-.687.352-1.214v-4.137c0-.61-.124-1.076-.375-1.391-.248-.318-.607-.478-1.08-.478Zm-.082 5.8c0 .24-.044.41-.13.514-.085.106-.219.157-.401.157a.872.872 0 0 1-.36-.08 1.215 1.215 0 0 1-.352-.263v-4.643c.102-.104.204-.18.306-.228a.694.694 0 0 1 .316-.074c.2 0 .356.064.465.192.104.132.156.322.156.575v3.85ZM22.325 32.863a2.1 2.1 0 0 1-.461.398c-.168.104-.308.156-.416.156-.14 0-.241-.038-.306-.118-.06-.078-.093-.206-.093-.381V27.2H19.56v6.232c0 .446.087.773.26 1 .178.22.434.33.78.33.28 0 .569-.075.866-.235.297-.162.583-.39.859-.691v.817h1.49V27.2h-1.49v5.662h-.001Z" fill="#fff"/>
        <path d="M24 0C10.745 0 0 10.745 0 24c0 13.257 10.745 24 24 24s24-10.743 24-24C48 10.745 37.254 0 24 0Zm3.877 11.853h1.675v6.295c0 .196.038.336.109.421.068.088.183.134.34.134.122 0 .278-.06.468-.174a2.3 2.3 0 0 0 .516-.445v-6.23h1.68v8.21h-1.68v-.907c-.306.333-.628.59-.965.763-.333.174-.657.263-.972.263-.388 0-.68-.123-.878-.369-.194-.242-.293-.607-.293-1.1v-6.86Zm-6.228 1.877c0-.633.224-1.14.676-1.52.453-.374 1.06-.564 1.821-.564.695 0 1.262.2 1.708.595.441.396.663.91.663 1.538v4.24c0 .704-.218 1.254-.65 1.652-.437.397-1.035.597-1.797.597-.733 0-1.32-.206-1.761-.615-.44-.415-.66-.97-.66-1.667V13.73ZM17.08 8.935l1.226 4.447h.12l1.167-4.447h1.919l-2.197 6.513v4.616h-1.889v-4.41l-2.248-6.719h1.902Zm21.967 23.423a5.38 5.38 0 0 1-5.378 5.38H14.98a5.38 5.38 0 0 1-5.379-5.38v-4.325a5.38 5.38 0 0 1 5.38-5.38h18.69a5.379 5.379 0 0 1 5.377 5.38v4.325Z" fill="#fff"/>
        <path d="M32.265 27.015c-.669 0-1.209.202-1.632.612-.42.405-.633.934-.633 1.576v3.35c0 .72.194 1.283.577 1.69.383.41.908.615 1.576.615.742 0 1.3-.192 1.671-.577.377-.388.562-.963.562-1.728v-.383h-1.533v.34c0 .439-.051.723-.148.85-.096.128-.27.192-.517.192-.238 0-.406-.074-.505-.224-.098-.154-.144-.425-.144-.819v-1.402h2.847v-1.904c0-.704-.18-1.244-.547-1.623-.368-.376-.893-.564-1.574-.564Zm.588 2.932h-1.315v-.753c0-.312.047-.54.152-.669.104-.14.274-.205.511-.205.225 0 .394.066.495.205.103.13.157.356.157.669v.753Z" fill="#fff"/>
    </g>
    <defs>
        <clipPath id="a">
            <path fill="#fff" d="M0 0h48v48H0z"/>
        </clipPath>
    </defs>
</svg>
